packages/core/src/svgs/tokens/mono/BTSE.svg

<svg width="24" height="24" viewBox="0 0 24 24" fill="none" xmlns="http://www.w3.org/2000/svg">
<path d="M12.4148 17.9999C14.1114 17.9999 15.0888 17.1412 15.0888 15.9999C15.0888 14.942 14.2262 14 12.3567 14H8.66682V17.9999H12.4148ZM11.6669 10C13.3635 10 14.2548 9.13994 14.2548 8C14.2548 6.94333 13.3349 5.99999 11.6669 5.99999H8.66682V10H11.6669ZM3.3335 2H12.9895C15.5195 2 17.3028 2.87333 18.4814 4.014C19.2861 4.79401 19.7749 5.82333 19.7749 7.15866V7.21333C19.7749 9.468 18.4528 10.8027 16.6701 11.5546C19.1141 12.334 20.6668 13.6692 20.6668 16.3126V16.368C20.6668 19.7073 17.8488 22 13.0468 22H3.3335V2Z" fill="white"/>
</svg>

<svg xmlns="http://www.w3.org/2000/svg" width="24" height="24" fill="none" viewBox="0 0 24 24">
    <path fill="#fff" d="M12.415 18c1.696 0 2.674-.859 2.674-2 0-1.058-.863-2-2.732-2h-3.69v4zm-.748-8c1.697 0 2.588-.86 2.588-2 0-1.057-.92-2-2.588-2h-3v4zM3.334 2h9.656c2.53 0 4.313.873 5.491 2.014.805.78 1.294 1.81 1.294 3.145v.054c0 2.255-1.322 3.59-3.105 4.342 2.444.779 3.997 2.114 3.997 4.758v.055c0 3.34-2.818 5.632-7.62 5.632H3.333z"/>
</svg>
